common/src/main/resources/files/plugins/bigdata/tencent.svg

<!--
  - The MIT License (MIT)
  -
  - Copyright (c) 2015-2024 Elior "Mallowigi" Boukhobza
  -
  - Permission is hereby granted, free of charge, to any person obtaining a copy
  - of this software and associated documentation files (the "Software"), to deal
  - in the Software without restriction, including without limitation the rights
  - to use, copy, modify, merge, publish, distribute, sublicense, and/or sell
  - copies of the Software, and to permit persons to whom the Software is
  - furnished to do so, subject to the following conditions:
  -
  - The above copyright notice and this permission notice shall be included in all
  - copies or substantial portions of the Software.
  -
  - THE SOFTWARE IS PROVIDED "AS IS", WITHOUT WARRANTY OF ANY KIND, EXPRESS OR
  - IMPLIED, INCLUDING BUT NOT LIMITED TO THE WARRANTIES OF MERCHANTABILITY,
  - FITNESS FOR A PARTICULAR PURPOSE AND NONINFRINGEMENT. IN NO EVENT SHALL THE
  - AUTHORS OR COPYRIGHT HOLDERS BE LIABLE FOR ANY CLAIM, DAMAGES OR OTHER
  - LIABILITY, WHETHER IN AN ACTION OF CONTRACT, TORT OR OTHERWISE, ARISING FROM,
  - OUT OF OR IN CONNECTION WITH THE SOFTWARE OR THE USE OR OTHER DEALINGS IN THE
  - SOFTWARE.
  -->

<svg data-big="true" width="16px" height="16px" viewBox="0 0 16 16" fill="none" xmlns="http://www.w3.org/2000/svg">
  <path
    d="M13.1215 11.1665C12.8965 11.389 12.4464 11.722 11.6582 11.722H6.81817C8.28148 10.3335 9.51974 9.16701 9.63226 9.05551C9.74479 8.94451 10.0258 8.66651 10.3074 8.44451C10.8705 7.94451 11.3206 7.88901 11.7147 7.88901C12.2773 7.88901 12.7274 8.11101 13.1215 8.44401C13.9097 9.16651 13.9097 10.444 13.1215 11.1665V11.1665ZM14.0782 7.55551C13.7837 7.24047 13.4268 6.98905 13.0297 6.81698C12.6327 6.64491 12.2041 6.5559 11.7707 6.55551C10.983 6.55551 10.3074 6.83351 9.68827 7.27801C9.46322 7.50001 9.12565 7.72201 8.84409 8.05551C8.61905 8.27801 3.77902 12.9445 3.77902 12.9445C4.06008 13 4.39815 13 4.67921 13H10.814C11.2641 13 11.6022 13 11.9392 12.9445C12.7145 12.8881 13.4482 12.575 14.0222 12.0555C15.3165 10.8335 15.3165 8.77801 14.0782 7.55551V7.55551Z"
    fill="#00A3FF"/>
  <path
    d="M6.19902 7.22201C5.57989 6.77801 4.96075 6.55551 4.2291 6.55551C3.79574 6.5559 3.36713 6.64491 2.97008 6.81698C2.57303 6.98905 2.2161 7.24047 1.92161 7.55551C1.32096 8.1678 0.989654 8.991 1.00025 9.84483C1.01084 10.6987 1.36247 11.5135 1.97813 12.111C2.54074 12.611 3.10336 12.889 3.77901 12.9445L5.07328 11.722H4.34162C3.60997 11.667 3.15987 11.4445 2.87831 11.167C2.50553 10.8025 2.29108 10.3082 2.28062 9.78929C2.27016 9.27042 2.46451 8.768 2.8223 8.38901C3.21588 8.00001 3.66648 7.83351 4.2291 7.83351C4.56718 7.83351 5.07328 7.88851 5.57989 8.38851C5.80493 8.61101 6.42406 9.05551 6.64962 9.27801H6.70512L7.5498 8.44451V8.38901C7.15622 8.00001 6.53659 7.50001 6.19902 7.22201Z"
    fill="#00A3FF"/>
  <path
    d="M12.1083 5.8335C11.7962 5.00279 11.2356 4.28631 10.5014 3.77994C9.76718 3.27357 8.89443 3.00145 7.99989 3C5.80493 3 4.06006 4.611 3.72299 6.611C3.89203 6.611 4.06107 6.556 4.28611 6.556C4.51116 6.556 4.79222 6.611 5.01777 6.611C5.29883 5.222 6.53709 4.222 8.0004 4.222C9.23816 4.222 10.3079 4.945 10.814 6C10.814 6 10.8705 6.0555 10.8705 6C11.2641 5.9445 11.7147 5.8335 12.1083 5.8335C12.1083 5.8885 12.1083 5.8885 12.1083 5.8335"
    fill="#00A3FF"/>
</svg>

<svg xmlns="http://www.w3.org/2000/svg" width="16" height="16" fill="none" data-big="true"><path fill="#00A3FF" d="M13.122 11.167c-.226.222-.676.555-1.464.555h-4.84c1.463-1.388 2.702-2.555 2.814-2.666s.394-.39.675-.611c.563-.5 1.014-.556 1.408-.556.562 0 1.012.222 1.406.555.789.723.789 2 0 2.722m.956-3.611a3.15 3.15 0 0 0-2.307-1c-.788 0-1.464.278-2.083.722-.225.222-.562.444-.844.778-.225.222-5.065 4.889-5.065 4.889.281.055.62.055.9.055h6.135c.45 0 .788 0 1.125-.056a3.48 3.48 0 0 0 2.083-.889 3.14 3.14 0 0 0 .056-4.5"/><path fill="#00A3FF" d="M6.199 7.222c-.62-.444-1.238-.666-1.97-.666a3.17 3.17 0 0 0-2.307 1A3.21 3.21 0 0 0 1 9.845c.01.854.362 1.668.978 2.266.563.5 1.125.778 1.801.833l1.294-1.222h-.731c-.732-.055-1.182-.277-1.464-.555a1.983 1.983 0 0 1-.056-2.778c.394-.389.844-.555 1.407-.555.338 0 .844.055 1.35.555.226.222.845.667 1.07.889h.056l.845-.833v-.056C7.156 8 6.537 7.5 6.199 7.222"/><path fill="#00A3FF" d="M12.108 5.834a4.36 4.36 0 0 0-1.607-2.054A4.4 4.4 0 0 0 8 3C5.805 3 4.06 4.611 3.723 6.611c.169 0 .338-.055.563-.055s.506.055.732.055C5.298 5.222 6.538 4.222 8 4.222c1.238 0 2.308.723 2.814 1.778 0 0 .056.056.056 0 .394-.056.845-.167 1.238-.167q0 .082 0 0"/></svg>
